flaticon/army-badges/medal-10.svg

<svg xmlns="http://www.w3.org/2000/svg" width="32" height="32" viewBox="0 0 24 24">
    <path d="M 16.800781 16 L 14.800781 16 L 14.800781 14 C 14.800781 13.761719 14.640625 13.601562 14.398438 13.601562 L 13.84375 13.601562 L 16.679688 11.078125 C 16.761719 11.039062 16.800781 10.921875 16.800781 10.800781 L 16.800781 0.398438 C 16.800781 0.160156 16.640625 0 16.398438 0 L 7.601562 0 C 7.359375 0 7.199219 0.160156 7.199219 0.398438 L 7.199219 10.800781 C 7.199219 10.921875 7.238281 11.039062 7.320312 11.078125 L 10.15625 13.601562 L 9.601562 13.601562 C 9.359375 13.601562 9.199219 13.761719 9.199219 14 L 9.199219 16 L 7.199219 16 C 6.960938 16 6.800781 16.160156 6.800781 16.398438 L 6.800781 21.199219 C 6.800781 21.441406 6.960938 21.601562 7.199219 21.601562 L 9.199219 21.601562 L 9.199219 23.601562 C 9.199219 23.839844 9.359375 24 9.601562 24 L 14.398438 24 C 14.640625 24 14.800781 23.839844 14.800781 23.601562 L 14.800781 21.601562 L 16.800781 21.601562 C 17.039062 21.601562 17.199219 21.441406 17.199219 21.199219 L 17.199219 16.398438 C 17.199219 16.160156 17.039062 16 16.800781 16 Z M 16 10.640625 L 14 12.402344 L 14 0.800781 L 16 0.800781 Z M 13.199219 0.800781 L 13.199219 13.105469 L 12.640625 13.601562 L 11.359375 13.601562 L 10.800781 13.105469 L 10.800781 0.800781 Z M 8 0.800781 L 10 0.800781 L 10 12.402344 L 8 10.640625 Z M 16.398438 20.800781 L 14.398438 20.800781 C 14.160156 20.800781 14 20.960938 14 21.199219 L 14 23.199219 L 10 23.199219 L 10 21.199219 C 10 20.960938 9.839844 20.800781 9.601562 20.800781 L 7.601562 20.800781 L 7.601562 16.800781 L 9.601562 16.800781 C 9.839844 16.800781 10 16.640625 10 16.398438 L 10 14.398438 L 14 14.398438 L 14 16.398438 C 14 16.640625 14.160156 16.800781 14.398438 16.800781 L 16.398438 16.800781 Z M 16.398438 20.800781"/>
</svg>

<svg xmlns="http://www.w3.org/2000/svg" width="32" height="32" viewBox="0 0 24 24">
    <path d="M16.8 16h-2v-2c0-.238-.16-.398-.402-.398h-.554l2.836-2.524c.082-.039.12-.156.12-.277V.398C16.8.16 16.64 0 16.399 0H7.602c-.243 0-.403.16-.403.398v10.403c0 .12.04.238.121.277l2.836 2.524h-.554c-.243 0-.403.16-.403.398v2h-2c-.238 0-.398.16-.398.398V21.2c0 .242.16.403.398.403h2v2c0 .238.16.398.403.398h4.796c.243 0 .403-.16.403-.398v-2h2c.238 0 .398-.16.398-.403v-4.8c0-.239-.16-.399-.398-.399zm-.8-5.36l-2 1.762V.801h2zM13.2.8v12.305l-.56.497h-1.28l-.56-.497V.801zM8 .8h2v11.602l-2-1.761zm8.398 20h-2c-.238 0-.398.16-.398.4v2h-4v-2c0-.24-.16-.4-.398-.4h-2v-4h2c.238 0 .398-.16.398-.402v-2h4v2c0 .243.16.403.398.403h2zm0 0"/>
</svg>
